X:400
T:the New-Rigged Ship (reel)
R:Reel
O:Scotland, USA
B:R. Robinsons tunebook
S:My arrangement from various sources
Z:Transcription, arrangement, chords:Mike Long
M:C|
L:1/8
K:D
eg|\
"Am/A"a2ab ageg|a2ab agef|"G"g2g2 fgag|"D"f2d2 d2:|\
|:ed|\
"A"cAcA "G"B2ed|"A"cAcA "(E)"E2ed|
"A"cAcA "G"B2ed|"A"c2A2 A2:|\
K:G
|:AB|\
"Am"cdec "G"BcdB|"Am"ABAF "(Em)"GFE2|"Am"cdec "G"BcdB|"Am"c2A2 A2:|
